X:1
T: Mrs. Elizabeth Hunter
C:
R:Strathspey
Q: 128
K:D
M:4/4
L:1/16
|:D2E2|F6 G2 E6 F2|D2F2 A2d2 f6 e2|d4 c2B2 A4 F2D2|D4 C2E2 B,4 A,4|
F6 G2 E6 F2|D2F2 A2d2 f6 e2|d4 c2B2 A4 F2D2|D6 C2 D4:|
|:A4|d4 e2f2 e4 d2c2|d6 cB A4 F4|G2A2 B2G2 F2G2 A2F2|E2G,2 B,2D2 D4 C4|
f4 e2d2 c2e2 d2c2|d2c2 B2A2 G2F2 E2D2|B,4 C2D2 D2C2 F3E|D12:|
